svg/furkot/freepik/search-map.svg

<svg viewBox="0 0 512 512" xmlns="http://www.w3.org/2000/svg"><path d="m512.313 260.941-47.109-185.073c-3.365-12.338-15.704-20.189-28.041-17.946l-88.612 17.946c-4.486 1.122-8.972 1.122-12.337-1.121l-161.517-53.839c-5.609-2.244-11.217-1.122-16.825 0l-96.461 39.257c-7.852 3.365-13.46 8.973-14.581 16.825l-45.988 182.829c-2.243 7.852 0 16.825 6.73 23.555 5.608 5.608 14.581 8.973 23.554 6.729l28.042-7.852c0-1.121 0-1.121 0-2.243-6.73-38.136 1.121-77.394 23.554-108.8 26.92-39.258 71.786-62.813 120.017-62.813 29.163 0 58.326 8.974 81.88 25.798 58.326 39.258 78.516 114.409 51.596 176.099h1.121c3.365 1.122 6.73 1.122 11.216 1.122l143.571-19.068c6.73-1.122 13.46-4.488 16.825-10.096s4.488-14.579 3.365-21.309z"/><path d="m233.022 207.101c-8.973-6.73-20.189-10.094-31.406-10.094-19.068 0-35.893 8.973-45.987 24.676-7.852 11.216-10.095 23.554-8.974 37.014l13.46-3.365c4.487-1.121 8.973-1.121 13.46 0l76.272 25.798c13.461-25.798 6.73-57.204-16.825-74.029zm-145.814 136.842-48.231 80.759c-12.338 21.312-5.608 49.353 15.703 61.691 6.73 4.487 14.582 6.729 22.433 6.729 15.703 0 30.285-7.852 38.136-22.433l45.988-77.394c-15.703-4.487-30.285-11.216-43.744-20.19-11.216-7.851-21.311-17.946-30.285-29.162z"/><path d="m271.159 151.019c-21.312-14.582-45.988-21.311-69.543-21.311-39.257 0-78.515 19.068-102.07 53.839-38.136 56.082-24.676 132.354 31.406 171.612 21.312 14.582 45.988 21.312 69.543 21.312 39.257 0 78.515-19.068 102.07-53.839 39.258-56.083 24.676-132.355-31.406-171.613zm-5.609 146.936c-15.703 22.433-40.379 33.649-65.055 33.649-15.703 0-30.285-4.487-43.745-13.459-35.892-24.678-44.866-74.029-20.189-108.8 15.703-22.433 40.379-33.65 65.055-33.65 15.703 0 30.285 4.487 43.745 13.46 35.892 23.555 44.866 72.908 20.189 108.8z"/></svg>

<svg xmlns="http://www.w3.org/2000/svg" viewBox="0 0 512 512"><path d="M512.313 260.941L465.204 75.868C461.839 63.53 449.5 55.679 437.163 57.922L348.551 75.868C344.065 76.99 339.579 76.99 336.214 74.747L174.697 20.908C169.088 18.664 163.48 19.786 157.872 20.908L61.411 60.165C53.559 63.53 47.951 69.138 46.83 76.99L0.842 259.819C-1.401 267.671 0.842 276.644 7.572 283.374 13.18 288.982 22.153 292.347 31.126 290.103L59.168 282.251C59.168 281.13 59.168 281.13 59.168 280.008 52.438 241.872 60.289 202.614 82.722 171.208 109.642 131.95 154.508 108.395 202.739 108.395 231.902 108.395 261.065 117.369 284.619 134.193 342.945 173.451 363.135 248.602 336.215 310.292H337.336C340.701 311.414 344.066 311.414 348.552 311.414L492.123 292.346C498.853 291.224 505.583 287.858 508.948 282.25S513.436 267.671 512.313 260.941Z"/><path d="M233.022 207.101C224.049 200.371 212.833 197.007 201.616 197.007 182.548 197.007 165.723 205.98 155.629 221.683 147.777 232.899 145.534 245.237 146.655 258.697L160.115 255.332C164.602 254.211 169.088 254.211 173.575 255.332L249.847 281.13C263.308 255.332 256.577 223.926 233.022 207.101ZM87.208 343.943L38.977 424.702C26.639 446.014 33.369 474.055 54.68 486.393 61.41 490.88 69.262 493.122 77.113 493.122 92.816 493.122 107.398 485.27 115.249 470.689L161.237 393.295C145.534 388.808 130.952 382.079 117.493 373.105 106.277 365.254 96.182 355.159 87.208 343.943Z"/><path d="M271.159 151.019C249.847 136.437 225.171 129.708 201.616 129.708 162.359 129.708 123.101 148.776 99.546 183.547 61.41 239.629 74.87 315.901 130.952 355.159 152.264 369.741 176.94 376.471 200.495 376.471 239.752 376.471 279.01 357.403 302.565 322.632 341.823 266.549 327.241 190.277 271.159 151.019ZM265.55 297.955C249.847 320.388 225.171 331.604 200.495 331.604 184.792 331.604 170.21 327.117 156.75 318.145 120.858 293.467 111.884 244.116 136.561 209.345 152.264 186.912 176.94 175.695 201.616 175.695 217.319 175.695 231.901 180.182 245.361 189.155 281.253 212.71 290.227 262.063 265.55 297.955Z"/></svg>
